src/assets/svg/icons/fa/nuevos/classic/light/filter classic light.svg

<svg xmlns="http://www.w3.org/2000/svg" viewBox="0 0 512 512"><path d="M0 71.53C0 49.7 17.7 32 39.53 32H472.5C494.3 32 512 49.7 512 71.53C512 80.73 508.8 89.64 502.9 96.73L320 317.8V446.1C320 464.8 304.8 480 286.1 480C278.6 480 271.3 477.5 265.3 472.9L204.4 425.4C196.6 419.4 192 410.1 192 400.2V317.8L9.076 96.73C3.21 89.64 0 80.73 0 71.53V71.53zM39.53 64C35.37 64 32 67.37 32 71.53C32 73.28 32.61 74.98 33.73 76.33L220.3 301.8C222.7 304.7 224 308.3 224 312V400.2L284.1 447.6C285.3 447.9 285.7 448 286.1 448C287.2 448 288 447.2 288 446.1V312C288 308.3 289.3 304.7 291.7 301.8L478.3 76.33C479.4 74.98 480 73.28 480 71.53C480 67.37 476.6 64 472.5 64H39.53z"/></svg>

<svg xmlns="http://www.w3.org/2000/svg" viewBox="0 0 512 512"><!--! Font Awesome Pro 6.4.0 by @fontawesome - https://fontawesome.com License - https://fontawesome.com/license (Commercial License) Copyright 2023 Fonticons, Inc. --><path d="M0 71.5C0 49.7 17.7 32 39.5 32H472.5C494.3 32 512 49.7 512 71.5c0 9.2-3.2 18.1-9.1 25.2L320 317.8V446.1c0 18.7-15.2 33.9-33.9 33.9c-7.5 0-14.8-2.5-20.8-7.1l-61-47.4c-7.8-6.1-12.4-15.4-12.4-25.3V317.8L9.1 96.7C3.2 89.6 0 80.7 0 71.5zM39.5 64c-4.2 0-7.5 3.4-7.5 7.5c0 1.8 .6 3.4 1.7 4.8L220.3 301.8c2.4 2.9 3.7 6.5 3.7 10.2v88.2l61 47.4c.3 .3 .7 .4 1.1 .4c1 0 1.9-.8 1.9-1.9V312c0-3.7 1.3-7.3 3.7-10.2L478.3 76.3c1.1-1.3 1.7-3 1.7-4.8c0-4.2-3.4-7.5-7.5-7.5H39.5z"/></svg>
